X:1

T:The Whistling Postman  [1]

M:4/4

L:1/8

R:reel

Z:transcribed by Caroline Foty

K:D

e||: f~d3 edef|dBAF E2FE|DA (3AAA BAFG|ABdf g2ag|f~d3 edef|dBAF E2FE| DA (3AAA BAdf|edBA dfag :|

|: fddc dfaf|bfaf gfec|dfaf g2bg|fedf e2ge|f~d3 dfaf|bfaf gfec|dBAF ABdf |edBA dfag :||

 

WHISTLING POSTMAN [2], THE. AKA and see “Charlie Mulvihill’s (Jig) [2],” “The Kerry Jig [3].” Irish, Jig. D Major. Standard tuning. AAB. Recorded under this title by whistle player Sean Ryan on his album “Take the Air.”

